X: 28691
T: My Ballingarry Lady
R: waltz
M: 3/4
K: Dmajor
FG|:"D"(3AAA d2 dA|"G"{d}B2 d2 (3dcB|"D"AB df ab|a2 {b}ad fa|
"G"gf eg fe|"D"fe df ed|"G"B2 ef ed|"A"ce Be "G"^AB|
"D"A2 d2 dA|"G"{d}B2 d2 (3dcB|"D"AB df ab|a2 {b}ad fa|
"G"gf eg (3f/g/f/ e|"D"fe dc B^A|"A"A2 f2 (3gfe|1 "D" d2 {e}dA FG:|2 "D"d3e fg|
"D"a2 {b}af df|"G"ed ce dB|"D"(3AAA FA df|"A"e2 {f}e^d ef|
"G"gf eg fe|"D"fe df ed|"G"B2 ef ed|"A"(3Bcd ef ge|
"D"a2 af df|"G"ed ce dB|"D"(3AAA FA dc|"G"B3 ^A =AG|
"D"(3FGA df af|"G"ed ce dc|"A"A2 f2 (3gfe|"D"d3 e fg|
a2 {b}af df|"G"ed ce dB|"D"(3AAA FA df|"A"e2 {f}e^d ef|
"G"gf eg (3f/g/f/ e|"D"fe df ed|"G"B2 e2 ed|"A"ce Be "G"^AB|
"D"(3AAA d2 dA|"G"B2 d2 (3dcB|"D"AB df ab|a2 {b}ad fa|
"G"gf eg (3f/g/f/ e|"D"fe dc B^A|"A"A2 f2 {g}fe|"D"d4||

